symbols/web/brightness_low/materialsymbolsrounded/brightness_low_wght500fill1_24px.svg

<svg xmlns="http://www.w3.org/2000/svg" height="24" width="24"><path d="M8.625 20.075H6.2q-.925 0-1.6-.675t-.675-1.6v-2.425L2.175 13.6q-.65-.675-.65-1.6t.65-1.6l1.75-1.775V6.2q0-.925.675-1.6t1.6-.675h2.425l1.775-1.75Q11.075 1.5 12 1.5t1.6.675l1.775 1.75H17.8q.925 0 1.6.675t.675 1.6v2.425l1.75 1.775q.675.675.675 1.6t-.675 1.6l-1.75 1.775V17.8q0 .925-.675 1.6t-1.6.675h-2.425l-1.775 1.75q-.675.65-1.6.65t-1.6-.65ZM12 16.85q-2.025 0-3.438-1.412Q7.15 14.025 7.15 12q0-2.025 1.412-3.438Q9.975 7.15 12 7.15q2.025 0 3.438 1.412Q16.85 9.975 16.85 12q0 2.025-1.412 3.438Q14.025 16.85 12 16.85Zm0-2.125q1.125 0 1.925-.8t.8-1.925q0-1.125-.8-1.925T12 9.275q-1.125 0-1.925.8T9.275 12q0 1.125.8 1.925t1.925.8Zm0 5.475 2.425-2.4H17.8v-3.375L20.225 12 17.8 9.575V6.2h-3.375L12 3.775 9.575 6.2H6.2v3.375L3.8 12l2.4 2.425V17.8h3.375Zm0-5.475q-1.125 0-1.925-.8T9.275 12q0-1.125.8-1.925t1.925-.8q1.125 0 1.925.8t.8 1.925q0 1.125-.8 1.925t-1.925.8Z"/></svg>

<svg xmlns="http://www.w3.org/2000/svg" height="24" width="24"><path d="M8.625 20.075H6.2Q5.275 20.075 4.6 19.4Q3.925 18.725 3.925 17.8V15.375L2.175 13.6Q1.525 12.925 1.525 12Q1.525 11.075 2.175 10.4L3.925 8.625V6.2Q3.925 5.275 4.6 4.6Q5.275 3.925 6.2 3.925H8.625L10.4 2.175Q11.075 1.5 12 1.5Q12.925 1.5 13.6 2.175L15.375 3.925H17.8Q18.725 3.925 19.4 4.6Q20.075 5.275 20.075 6.2V8.625L21.825 10.4Q22.5 11.075 22.5 12Q22.5 12.925 21.825 13.6L20.075 15.375V17.8Q20.075 18.725 19.4 19.4Q18.725 20.075 17.8 20.075H15.375L13.6 21.825Q12.925 22.475 12 22.475Q11.075 22.475 10.4 21.825ZM12 16.85Q9.975 16.85 8.562 15.438Q7.15 14.025 7.15 12Q7.15 9.975 8.562 8.562Q9.975 7.15 12 7.15Q14.025 7.15 15.438 8.562Q16.85 9.975 16.85 12Q16.85 14.025 15.438 15.438Q14.025 16.85 12 16.85ZM12 14.725Q13.125 14.725 13.925 13.925Q14.725 13.125 14.725 12Q14.725 10.875 13.925 10.075Q13.125 9.275 12 9.275Q10.875 9.275 10.075 10.075Q9.275 10.875 9.275 12Q9.275 13.125 10.075 13.925Q10.875 14.725 12 14.725ZM12 20.2 14.425 17.8H17.8V14.425L20.225 12L17.8 9.575V6.2H14.425L12 3.775L9.575 6.2H6.2V9.575L3.8 12L6.2 14.425V17.8H9.575ZM12 14.725Q10.875 14.725 10.075 13.925Q9.275 13.125 9.275 12Q9.275 10.875 10.075 10.075Q10.875 9.275 12 9.275Q13.125 9.275 13.925 10.075Q14.725 10.875 14.725 12Q14.725 13.125 13.925 13.925Q13.125 14.725 12 14.725Z"/></svg>
